svgs/light/butter.svg

<svg xmlns="http://www.w3.org/2000/svg" viewBox="0 0 640 512"><!--! Font Awesome Pro 6.6.0 by @fontawesome - https://fontawesome.com License - https://fontawesome.com/license (Commercial License) Copyright 2024 Fonticons, Inc. --><path d="M480 96l0 192-32 0 0-192L128 96c-17.7 0-32 14.3-32 32l0 160-32 0 0-160c0-35.3 28.7-64 64-64l320 0 16 0 16 0 32 0c35.3 0 64 28.7 64 64l0 160-32 0 0-160c0-17.7-14.3-32-32-32l-32 0zM0 336c0-8.8 7.2-16 16-16l16 0 32 0 512 0 32 0 16 0c8.8 0 16 7.2 16 16s-7.2 16-16 16l-16 0 0 48c0 26.5-21.5 48-48 48L80 448c-26.5 0-48-21.5-48-48l0-48-16 0c-8.8 0-16-7.2-16-16zm64 16l0 48c0 8.8 7.2 16 16 16l480 0c8.8 0 16-7.2 16-16l0-48L64 352z"/></svg>

<svg xmlns="http://www.w3.org/2000/svg" viewBox="0 0 640 512"><!--! Font Awesome Pro 6.4.0 by @fontawesome - https://fontawesome.com License - https://fontawesome.com/license (Commercial License) Copyright 2023 Fonticons, Inc. --><path d="M480 96V288H448V96H128c-17.7 0-32 14.3-32 32V288H64V128c0-35.3 28.7-64 64-64H448h16 16 32c35.3 0 64 28.7 64 64V288H544V128c0-17.7-14.3-32-32-32H480zM0 336c0-8.8 7.2-16 16-16H32 64 576h32 16c8.8 0 16 7.2 16 16s-7.2 16-16 16H608v48c0 26.5-21.5 48-48 48H80c-26.5 0-48-21.5-48-48V352H16c-8.8 0-16-7.2-16-16zm64 16v48c0 8.8 7.2 16 16 16H560c8.8 0 16-7.2 16-16V352H64z"/></svg>
